modules/themify-icons/icons/panel.svg

<?xml version="1.0" encoding="utf-8"?>
<!-- Generated by IcoMoon.io -->
<!DOCTYPE svg PUBLIC "-//W3C//DTD SVG 1.1//EN" "http://www.w3.org/Graphics/SVG/1.1/DTD/svg11.dtd">
<svg version="1.1" xmlns="http://www.w3.org/2000/svg" xmlns:xlink="http://www.w3.org/1999/xlink" width="17" height="17" viewBox="0 0 17 17">
<g>
</g>
	<path d="M0 0v17h17v-17h-17zM16 16h-15v-15h15v15zM4 10.232v2.768h1v-2.768c0.738-0.218 1.281-0.894 1.281-1.701s-0.543-1.483-1.281-1.701v-2.83h-1v2.83c-0.738 0.218-1.281 0.894-1.281 1.701s0.543 1.484 1.281 1.701zM4.5 7.75c0.431 0 0.781 0.351 0.781 0.781s-0.35 0.781-0.781 0.781-0.781-0.35-0.781-0.781 0.35-0.781 0.781-0.781zM8 8.107v4.893h1v-4.893c0.738-0.218 1.281-0.894 1.281-1.701s-0.543-1.483-1.281-1.701v-0.705h-1v0.705c-0.738 0.218-1.281 0.894-1.281 1.701s0.543 1.484 1.281 1.701zM8.5 5.625c0.431 0 0.781 0.351 0.781 0.781s-0.35 0.782-0.781 0.782-0.781-0.351-0.781-0.782 0.35-0.781 0.781-0.781zM12.5 13.417c0.982 0 1.781-0.799 1.781-1.781 0-0.808-0.543-1.483-1.281-1.701v-5.935h-1v5.935c-0.738 0.218-1.281 0.894-1.281 1.701 0 0.982 0.799 1.781 1.781 1.781zM12.5 10.854c0.431 0 0.781 0.351 0.781 0.781s-0.351 0.781-0.781 0.781-0.781-0.351-0.781-0.781 0.35-0.781 0.781-0.781z" fill="#000000" />
</svg>

<svg xmlns="http://www.w3.org/2000/svg" width="17" height="17" viewBox="0 0 17 17"><path d="M0 0v17h17V0H0zm16 16H1V1h15v15zM4 10.232V13h1v-2.768c.738-.218 1.281-.894 1.281-1.701S5.738 7.048 5 6.83V4H4v2.83c-.738.218-1.281.894-1.281 1.701S3.262 10.015 4 10.232zm.5-2.482a.782.782 0 0 1 0 1.562.781.781 0 0 1 0-1.562zm3.5.357V13h1V8.107c.738-.218 1.281-.894 1.281-1.701S9.738 4.923 9 4.705V4H8v.705c-.738.218-1.281.894-1.281 1.701S7.262 7.89 8 8.107zm.5-2.482a.782.782 0 1 1-.002 1.564.782.782 0 0 1 .002-1.564zm4 7.792c.982 0 1.781-.799 1.781-1.781 0-.808-.543-1.483-1.281-1.701V4h-1v5.935a1.778 1.778 0 0 0-1.281 1.701c0 .982.799 1.781 1.781 1.781zm0-2.563a.782.782 0 0 1 0 1.562.782.782 0 0 1 0-1.562z"/></svg>
